dist/assets/images/logo.svg

<svg width="142" height="121" viewBox="0 0 142 121" fill="none" xmlns="http://www.w3.org/2000/svg">
<g clip-path="url(#clip0_45_23)">
<path d="M2.88 74.2C2.97129 71.5264 3.59802 68.8983 4.72309 66.4712C5.84817 64.0442 7.44871 61.8675 9.43 60.07C14.85 55.45 22.55 54.63 29.43 52.58C34.2271 51.249 38.718 48.9934 42.65 45.94C53.8 36.94 57.16 20.87 69.04 12.77C72.73 10.25 77.84 8.71 81.7 10.99C84.34 12.55 85.7 15.53 86.38 18.45C87.06 21.37 87.17 24.4 88.09 27.25C89.82 32.68 94.22 36.91 98.82 40.45C101.59 42.58 104.51 44.57 106.82 47.15C109.13 49.73 110.82 53.05 110.51 56.45C110.1 61.07 106.24 64.8 105.42 69.36C103.99 77.36 112.05 84.63 110.91 92.62C110.21 97.53 106.04 101.46 101.3 103.37C96.56 105.28 91.3 105.5 86.18 105.58C81.06 105.66 75.82 105.64 70.92 107.09C65.72 108.63 61.2 111.74 56.29 114.01C46.04 118.73 34.4 119.65 23.07 120.5C17.74 120.9 11.75 121.04 8.07 116.62C4.82 112.74 7.29 108.21 8.07 103.75C9 98.78 8.87 93.46 6.41 89C3.83038 84.5104 2.60445 79.3705 2.88 74.2Z" fill="white"/>
<path d="M92.72 62.91C97.81 74.32 100.61 73.33 96.72 77.51C77.33 98.15 38.13 112.51 23.32 110.58C20.7 110.24 20.17 107.86 19.77 105.1C14.55 69 7.47 70.07 14.9 67.69C38.7021 60.2386 61.3023 49.3865 82 35.47C82.87 38.15 83.75 39.81 86 45.25C87.47 50.87 91.45 60.06 92.72 62.91Z" fill="#1C1F28"/>
<path d="M58.86 88.42C54.86 85.97 54.27 81.62 54.78 77.09C55.21 73.23 59.58 68.64 64.02 70.77C65.3035 71.3748 66.4169 72.2888 67.26 73.43C73 81.12 66.36 93 58.86 88.42ZM66.23 80.15C66.23 76.35 63.17 72.03 60.02 74.46C57.94 76.06 57.49 78.24 57.8 80.59C58.03 82.34 58.42 84.1 60.02 85.32C62.02 86.83 64.02 86.59 65.1 84.41C65.6686 83.048 66.0488 81.6148 66.23 80.15Z" fill="white"/>
<path d="M79.17 72.21C90.39 73.14 90.09 73.08 90.61 73.3C90.8896 73.414 91.127 73.6118 91.2895 73.8663C91.452 74.1208 91.5316 74.4194 91.5173 74.721C91.5031 75.0226 91.3957 75.3123 91.2099 75.5503C91.0241 75.7884 90.7691 75.9629 90.48 76.05C87.14 76.9 76.36 73.54 77.1 76.87C77.51 78.71 78.61 80.7 78.61 82.49C78.61 83.49 75.41 88.63 71.87 69.08C71.7 68.08 71.63 66.08 72.64 65.96C73.65 65.84 74.03 67.1 74.64 68.53C74.7451 68.7747 74.8255 69.0293 74.88 69.29C74.9412 69.5036 75.0601 69.6963 75.2236 69.8468C75.3872 69.9973 75.589 70.0999 75.8069 70.1433C76.0249 70.1867 76.2506 70.1692 76.4593 70.0928C76.668 70.0163 76.8516 69.8839 76.99 69.71C79.11 66.95 80.89 62.13 82.25 60.94C82.5055 60.8074 82.8003 60.7719 83.08 60.84C83.7 60.94 83.75 62.61 83.19 64.16C81.43 69 81.08 68.94 79.17 72.21Z" fill="white"/>
<path d="M39.79 92.32C37.71 88 38.18 81.66 43.28 78.63C45.61 77.25 49.83 78.22 51.19 80.52C58.74 93.32 44.14 101.34 39.79 92.32ZM47.62 81C43.12 79.47 39.73 85.16 43.04 91.36C43.3229 91.9075 43.7446 92.3712 44.263 92.7045C44.7813 93.0379 45.3781 93.2294 45.9937 93.2597C46.6092 93.2901 47.2219 93.1583 47.7706 92.8776C48.3192 92.5969 48.7845 92.177 49.12 91.66C51.33 88.69 50.59 82 47.62 81Z" fill="white"/>
<path d="M35 87.43C34.47 89.02 31.68 84.76 29.53 86.37C26.91 88.37 26.47 92.25 26.96 95.37C27.56 99.2 31.49 99.99 33.35 97.47C34.09 96.47 35.19 91.37 37.46 94.57C38.05 95.4 36.53 99.89 32.76 101.64C25.93 104.8 20.01 95.64 25.13 86.38C27.13 82.72 33.04 81.46 35.31 85.16C35.5484 85.5097 35.6486 85.9353 35.5914 86.3546C35.5341 86.7739 35.3234 87.1571 35 87.43Z" fill="white"/>
<path d="M73 52.14C75.64 52.14 77.22 53.14 77.77 55.07C77.9521 56.1532 77.8033 57.2661 77.343 58.2633C76.8827 59.2606 76.1324 60.0958 75.19 60.66C72.52 61.98 69.5 61.82 67.8 59.48C66.96 58.33 68.92 56.48 70.23 57.4C70.8 57.81 72.01 59.87 74.13 58.78C76.25 57.69 76.13 54.78 74.03 54.54C72.14 54.34 66.03 56.18 66.76 51.13C67.17 48.27 70.91 45.36 74.42 47.4C75.74 48.17 75.14 50.02 73.57 49.55C73.2361 49.4247 72.8805 49.3672 72.5241 49.3811C72.1677 49.395 71.8177 49.4798 71.4945 49.6307C71.1713 49.7816 70.8815 49.9954 70.6421 50.2598C70.4026 50.5241 70.2183 50.8335 70.1 51.17C70 51.33 69.86 53 73 52.14Z" fill="white"/>
<path d="M33.19 67.5C33.52 68.44 33.3 69.12 33.55 69.08C34.7007 68.8224 35.795 68.3582 36.78 67.71C38.27 66.97 38.78 67.43 38.85 67.81C39.42 69.15 37.97 69.5 34.25 71.47C34.35 71.94 34.5 72.86 34.63 73.39C36.95 73.52 39.04 71 40.27 72.39C40.72 72.89 40.42 73.83 39.62 74.45C38.1285 75.5489 36.3226 76.138 34.47 76.13C30.95 76.23 30.7 69.81 31.47 66.47C31.77 65.2 32.58 64.87 36.54 63.58C36.9365 63.5051 37.3435 63.5051 37.74 63.58C38.35 63.65 38.74 64.58 38.28 64.95C37.5928 65.5259 36.8451 66.0255 36.05 66.44C35.1157 66.8428 34.1611 67.1966 33.19 67.5Z" fill="white"/>
<path d="M48.07 62.39C49.9 68.06 50.92 70.39 49.43 70.85C47.43 71.48 46.25 65.63 45.53 63.24C43.64 63.68 41.99 64.31 41.74 63.39C41.49 62.47 42.26 62.2 42.84 61.83C43.84 61.18 48.12 59.35 48.94 59.02C51.18 58.1 52.72 60.15 48.07 62.39Z" fill="white"/>
<path d="M23.91 76.67C24.9435 76.1785 26.0134 75.7673 27.11 75.44C29.16 75.09 29.9 76.83 28.32 77.78C25.32 79.57 21.47 82.08 21.05 78.71C20.98 78.17 19.71 71.32 20.05 70.9C20.56 69.78 22.16 69.84 22.34 70.23C23.46 72.52 23.25 73.49 23.91 76.67Z" fill="white"/>
<path d="M59.56 57.41C59.51 57.82 59.49 58.11 59.44 58.41C59 60.52 56.63 60.09 57 58C57.1682 57.2395 57.4408 56.5059 57.81 55.82C57.9085 55.7085 58.0337 55.6238 58.1738 55.5738C58.3139 55.5238 58.4644 55.5102 58.6113 55.5342C58.7581 55.5581 58.8964 55.6189 59.0134 55.7109C59.1303 55.8029 59.2221 55.923 59.28 56.06C59.4143 56.5005 59.508 56.9524 59.56 57.41Z" fill="white"/>
<path d="M130.48 0.619985C119.48 4.51998 106.24 18.94 82.92 34.82C84.38 37.61 84.92 39.65 87.05 44.13C94.87 40.44 129.57 25.21 140.05 12.59C144.66 7.04998 139.37 -2.53002 130.48 0.619985ZM135.48 9.17999C134.824 10.4164 133.846 11.4528 132.65 12.18C131.11 13.28 121.65 18.94 120.57 15.4C119.57 12.4 127.88 7.57998 129.76 6.39998C131.2 5.46999 133 4.53998 134.6 5.51998C135.147 5.93392 135.536 6.52305 135.702 7.18911C135.868 7.85516 135.8 8.55787 135.51 9.17999H135.48Z" fill="#1C1F28"/>
<path d="M70.3 89.8C62.63 93.99 55.3 98.52 47.07 101.62C35.42 106 19.72 106.77 22.77 107.06C37.3 108.4 59.46 98.9 70.6 90.17C70.82 90 70.54 89.67 70.3 89.8Z" fill="white"/>
<path d="M111.24 66C111.995 63.9008 113.237 62.0105 114.864 60.4843C116.491 58.958 118.457 57.8394 120.6 57.22C121.421 56.9319 122.321 56.9641 123.12 57.31C123.542 57.5411 123.889 57.8881 124.12 58.31C125.24 60.31 124.12 62.93 122.49 64.57C120.86 66.21 118.64 67.29 116.85 68.81C114.08 71.18 113.26 74.81 110.85 77.17C109.45 74 110 69.34 111.24 66Z" fill="white"/>
<path d="M113.62 52.15C113.37 49.37 111.33 46.9 111.37 44.15C111.378 43.3294 111.585 42.5231 111.974 41.8003C112.362 41.0774 112.92 40.4596 113.6 40C114.307 39.5519 115.128 39.3141 115.965 39.3141C116.802 39.3141 117.623 39.5519 118.33 40C119.262 40.6888 119.94 41.666 120.26 42.78C120.675 44.2602 120.778 45.8107 120.561 47.3327C120.344 48.8547 119.812 50.3148 119 51.62C117.95 53.44 115.69 56.97 113.24 56.72C113.16 55.28 113.76 53.7 113.62 52.15Z" fill="white"/>
<path d="M2.7 101.83C1.58 101.62 1 100.47 0.62 99.42C0.03 97.5 -0.59 94.05 1.07 92.42C1.32566 92.139 1.63894 91.9165 1.98846 91.7677C2.33798 91.6189 2.71549 91.5473 3.09523 91.5577C3.47496 91.5682 3.84797 91.6604 4.18878 91.8282C4.52959 91.996 4.83017 92.2354 5.07 92.53C6.74 94.45 6.53 102.55 2.7 101.83Z" fill="white"/>
<path d="M40.28 38.56C41.83 39.35 41.95 41.56 40.97 43.01C39.54 45.01 33.16 48.65 32.61 44.41C32.21 41.27 37.26 37 40.28 38.56Z" fill="white"/>
</g>
<defs>
<clipPath id="clip0_45_23">
<rect width="141.76" height="120.68" fill="white"/>
</clipPath>
</defs>
</svg>

<svg width="142" height="121" fill="none" xmlns="http://www.w3.org/2000/svg"><g clip-path="url(#clip0_45_23)"><path d="M2.88 74.2a20 20 0 016.55-14.13c5.42-4.62 13.12-5.44 20-7.49a38.21 38.21 0 0013.22-6.64c11.15-9 14.51-25.07 26.39-33.17 3.69-2.52 8.8-4.06 12.66-1.78 2.64 1.56 4 4.54 4.68 7.46.68 2.92.79 5.95 1.71 8.8 1.73 5.43 6.13 9.66 10.73 13.2 2.77 2.13 5.69 4.12 8 6.7 2.31 2.58 4 5.9 3.69 9.3-.41 4.62-4.27 8.35-5.09 12.91-1.43 8 6.63 15.27 5.49 23.26-.7 4.91-4.87 8.84-9.61 10.75-4.74 1.91-10 2.13-15.12 2.21-5.12.08-10.36.06-15.26 1.51-5.2 1.54-9.72 4.65-14.63 6.92-10.25 4.72-21.89 5.64-33.22 6.49-5.33.4-11.32.54-15-3.88-3.25-3.88-.78-8.41 0-12.87.93-4.97.8-10.29-1.66-14.75a26.84 26.84 0 01-3.53-14.8z" fill="#fff"/><path d="M92.72 62.91c5.09 11.41 7.89 10.42 4 14.6-19.39 20.64-58.59 35-73.4 33.07-2.62-.34-3.15-2.72-3.55-5.48C14.55 69 7.47 70.07 14.9 67.69A258.86 258.86 0 0082 35.47c.87 2.68 1.75 4.34 4 9.78 1.47 5.62 5.45 14.81 6.72 17.66z" fill="#1C1F28"/><path d="M58.86 88.42c-4-2.45-4.59-6.8-4.08-11.33.43-3.86 4.8-8.45 9.24-6.32a8.57 8.57 0 013.24 2.66c5.74 7.69-.9 19.57-8.4 14.99zm7.37-8.27c0-3.8-3.06-8.12-6.21-5.69-2.08 1.6-2.53 3.78-2.22 6.13.23 1.75.62 3.51 2.22 4.73 2 1.51 4 1.27 5.08-.91a16.23 16.23 0 001.13-4.26zm12.94-7.94c11.22.93 10.92.87 11.44 1.09a1.46 1.46 0 01-.13 2.75c-3.34.85-14.12-2.51-13.38.82.41 1.84 1.51 3.83 1.51 5.62 0 1-3.2 6.14-6.74-13.41-.17-1-.24-3 .77-3.12 1.01-.12 1.39 1.14 2 2.57a4 4 0 01.24.76 1.21 1.21 0 002.11.42c2.12-2.76 3.9-7.58 5.26-8.77a1.19 1.19 0 01.83-.1c.62.1.67 1.77.11 3.32-1.76 4.84-2.11 4.78-4.02 8.05zM39.79 92.32c-2.08-4.32-1.61-10.66 3.49-13.69 2.33-1.38 6.55-.41 7.91 1.89 7.55 12.8-7.05 20.82-11.4 11.8zM47.62 81c-4.5-1.53-7.89 4.16-4.58 10.36a3.519 3.519 0 006.08.3c2.21-2.97 1.47-9.66-1.5-10.66zM35 87.43c-.53 1.59-3.32-2.67-5.47-1.06-2.62 2-3.06 5.88-2.57 9 .6 3.83 4.53 4.62 6.39 2.1.74-1 1.84-6.1 4.11-2.9.59.83-.93 5.32-4.7 7.07-6.83 3.16-12.75-6-7.63-15.26 2-3.66 7.91-4.92 10.18-1.22a1.71 1.71 0 01-.31 2.27zm38-35.29c2.64 0 4.22 1 4.77 2.93a5.46 5.46 0 01-2.58 5.59c-2.67 1.32-5.69 1.16-7.39-1.18-.84-1.15 1.12-3 2.43-2.08.57.41 1.78 2.47 3.9 1.38 2.12-1.09 2-4-.1-4.24-1.89-.2-8 1.64-7.27-3.41.41-2.86 4.15-5.77 7.66-3.73 1.32.77.72 2.62-.85 2.15a2.68 2.68 0 00-3.47 1.62c-.1.16-.24 1.83 2.9.97zM33.19 67.5c.33.94.11 1.62.36 1.58a9.75 9.75 0 003.23-1.37c1.49-.74 2-.28 2.07.1.57 1.34-.88 1.69-4.6 3.66.1.47.25 1.39.38 1.92 2.32.13 4.41-2.39 5.64-1 .45.5.15 1.44-.65 2.06a8.62 8.62 0 01-5.15 1.68c-3.52.1-3.77-6.32-3-9.66.3-1.27 1.11-1.6 5.07-2.89a3.232 3.232 0 011.2 0c.61.07 1 1 .54 1.37a12.386 12.386 0 01-2.23 1.49c-.934.403-1.889.757-2.86 1.06zm14.88-5.11c1.83 5.67 2.85 8 1.36 8.46-2 .63-3.18-5.22-3.9-7.61-1.89.44-3.54 1.07-3.79.15s.52-1.19 1.1-1.56c1-.65 5.28-2.48 6.1-2.81 2.24-.92 3.78 1.13-.87 3.37zM23.91 76.67a22.304 22.304 0 013.2-1.23c2.05-.35 2.79 1.39 1.21 2.34-3 1.79-6.85 4.3-7.27.93-.07-.54-1.34-7.39-1-7.81.51-1.12 2.11-1.06 2.29-.67 1.12 2.29.91 3.26 1.57 6.44zm35.65-19.26c-.05.41-.07.7-.12 1C59 60.52 56.63 60.09 57 58a8.42 8.42 0 01.81-2.18.88.88 0 011.47.24c.134.44.228.892.28 1.35z" fill="#fff"/><path d="M130.48.62c-11 3.9-24.24 18.32-47.56 34.2 1.46 2.79 2 4.83 4.13 9.31 7.82-3.69 42.52-18.92 53-31.54 4.61-5.54-.68-15.12-9.57-11.97zm5 8.56a7.778 7.778 0 01-2.83 3c-1.54 1.1-11 6.76-12.08 3.22-1-3 7.31-7.82 9.19-9 1.44-.93 3.24-1.86 4.84-.88a3.004 3.004 0 01.91 3.66h-.03z" fill="#1C1F28"/><path d="M70.3 89.8c-7.67 4.19-15 8.72-23.23 11.82-11.65 4.38-27.35 5.15-24.3 5.44C37.3 108.4 59.46 98.9 70.6 90.17c.22-.17-.06-.5-.3-.37zM111.24 66a14.11 14.11 0 019.36-8.78 3.46 3.46 0 012.52.09 2.52 2.52 0 011 1c1.12 2 0 4.62-1.63 6.26-1.63 1.64-3.85 2.72-5.64 4.24-2.77 2.37-3.59 6-6 8.36-1.4-3.17-.85-7.83.39-11.17zm2.38-13.85c-.25-2.78-2.29-5.25-2.25-8A5.062 5.062 0 01113.6 40a4.42 4.42 0 014.73 0 5.263 5.263 0 011.93 2.78 11.075 11.075 0 01-1.26 8.84c-1.05 1.82-3.31 5.35-5.76 5.1-.08-1.44.52-3.02.38-4.57zM2.7 101.83c-1.12-.21-1.7-1.36-2.08-2.41-.59-1.92-1.21-5.37.45-7a2.64 2.64 0 014 .11c1.67 1.92 1.46 10.02-2.37 9.3zm37.58-63.27c1.55.79 1.67 3 .69 4.45-1.43 2-7.81 5.64-8.36 1.4-.4-3.14 4.65-7.41 7.67-5.85z" fill="#fff"/></g><defs><clipPath id="clip0_45_23"><path fill="#fff" d="M0 0h141.76v120.68H0z"/></clipPath></defs></svg>
